assets/img/patrocinadores/elastic-logo.svg

<?xml version="1.0" encoding="UTF-8" standalone="no"?>
<svg
   xmlns:dc="http://purl.org/dc/elements/1.1/"
   xmlns:cc="http://creativecommons.org/ns#"
   xmlns:rdf="http://www.w3.org/1999/02/22-rdf-syntax-ns#"
   xmlns:svg="http://www.w3.org/2000/svg"
   xmlns="http://www.w3.org/2000/svg"
   xmlns:sodipodi="http://sodipodi.sourceforge.net/DTD/sodipodi-0.dtd"
   xmlns:inkscape="http://www.inkscape.org/namespaces/inkscape"
   width="500"
   height="172"
   viewBox="0 0 500 172"
   fill="none"
   version="1.1"
   id="svg37"
   sodipodi:docname="elastic-logo.svg"
   inkscape:version="1.0.2 (e86c870879, 2021-01-15, custom)">
  <metadata
     id="metadata41">
    <rdf:RDF>
      <cc:Work
         rdf:about="">
        <dc:format>image/svg+xml</dc:format>
        <dc:type
           rdf:resource="http://purl.org/dc/dcmitype/StillImage" />
      </cc:Work>
    </rdf:RDF>
  </metadata>
  <sodipodi:namedview
     pagecolor="#ffffff"
     bordercolor="#666666"
     borderopacity="1"
     objecttolerance="10"
     gridtolerance="10"
     guidetolerance="10"
     inkscape:pageopacity="0"
     inkscape:pageshadow="2"
     inkscape:window-width="2304"
     inkscape:window-height="1262"
     id="namedview39"
     showgrid="false"
     inkscape:zoom="2.818"
     inkscape:cx="250"
     inkscape:cy="86"
     inkscape:window-x="-11"
     inkscape:window-y="-11"
     inkscape:window-maximized="1"
     inkscape:current-layer="svg37" />
  <g
     clip-path="url(#clip0_15_21)"
     id="g30"
     transform="matrix(0.88360539,0,0,0.82605471,29.098652,14.904187)">
    <path
       d="m 172.05,89.79 c 0.016,-6.9814 -2.126,-13.7971 -6.135,-19.5133 -4.008,-5.7161 -9.686,-10.0531 -16.255,-12.4167 0.598,-3.047 0.899,-6.1448 0.9,-9.25 0.006,-10.2781 -3.248,-20.2933 -9.293,-28.6057 C 135.222,11.6919 126.697,5.51043 116.917,2.3487 107.138,-0.813038 96.6072,-0.792202 86.8401,2.40821 77.073,5.60863 68.5722,11.8238 62.5601,20.16 58.1246,16.7229 52.6898,14.8248 47.0788,14.7535 41.4678,14.6822 35.9865,16.4414 31.465,19.7646 26.9435,23.0879 23.6283,27.7942 22.0214,33.1707 20.4146,38.5471 20.6037,44.3007 22.5601,49.56 15.9754,51.9601 10.2837,56.3191 6.25042,62.0507 2.21719,67.7824 0.0359539,74.6117 1.15291e-4,81.62 -0.018156,88.6256 2.13571,95.4646 6.16517,101.195 c 4.02943,5.731 9.73633,10.072 16.33493,12.425 -0.5841,3.046 -0.8821,6.139 -0.89,9.24 -0.0098,10.266 3.241,20.27 9.2836,28.57 6.0427,8.299 14.5649,14.465 24.338,17.609 9.7731,3.143 20.292,3.102 30.04,-0.119 9.748,-3.22 18.2213,-9.453 24.1983,-17.8 4.423,3.446 9.848,5.355 15.454,5.439 5.606,0.084 11.086,-1.663 15.609,-4.975 4.524,-3.313 7.844,-8.01 9.456,-13.379 1.613,-5.37 1.431,-11.118 -0.519,-16.375 6.588,-2.396 12.284,-6.754 16.319,-12.486 4.036,-5.732 6.217,-12.5637 6.251,-19.574"
       fill="#ffffff"
       id="path2" />
    <path
       d="m 67.64,73.81 37.65,17.19 38,-33.28 c 0.547,-2.746 0.819,-5.5399 0.81,-8.34 -0.002,-9.065 -2.905,-17.8914 -8.285,-25.1877 C 130.436,16.896 122.863,11.5129 114.203,8.83068 105.544,6.14846 96.254,6.30793 87.6921,9.28575 79.1301,12.2636 71.7459,17.9034 66.62,25.38 l -6.33,32.74 z"
       fill="#fec514"
       id="path4" />
    <path
       d="m 28.6701,113.68 c -0.5551,2.789 -0.8332,5.626 -0.83,8.47 2e-4,9.103 2.9182,17.966 8.3258,25.288 5.4076,7.323 13.0199,12.719 21.7198,15.397 8.6999,2.678 18.0292,2.497 26.6186,-0.517 8.5894,-3.013 15.9867,-8.701 21.1057,-16.228 l 6.27,-32.67 -8.37,-15.9999 -37.7899,-17.22 z"
       fill="#00bfb3"
       id="path6" />
    <path
       d="m 28.4401,48.53 25.8,6.09 5.65,-29.34 c -3.5092,-2.6609 -7.7859,-4.1135 -12.1897,-4.1403 -4.4039,-0.0269 -8.698,1.3736 -12.2393,3.9916 -3.5413,2.6179 -6.1393,6.3126 -7.405,10.5307 -1.2657,4.2182 -1.131,8.7328 0.384,12.868 z"
       fill="#f04e98"
       id="path8" />
    <path
       d="M 26.2002,54.67 C 20.5394,56.5802 15.6146,60.2071 12.1108,65.0461 8.60695,69.8852 6.69825,75.6959 6.65015,81.67 c -0.00407,5.7739 1.74934,11.4122 5.02715,16.1654 3.2777,4.7536 7.9246,8.3966 13.3229,10.4446 l 36.2,-32.72 -6.65,-14.2 z"
       fill="#1ba9f5"
       id="path10" />
    <path
       d="m 112.23,146.09 c 3.504,2.647 7.77,4.091 12.161,4.114 4.391,0.023 8.672,-1.374 12.203,-3.984 3.532,-2.61 6.124,-6.293 7.391,-10.498 1.266,-4.204 1.138,-8.706 -0.365,-12.832 l -25.78,-6 z"
       fill="#93c90e"
       id="path12" />
    <path
       d="m 117.47,110.1 28.38,6.63 c 5.664,-1.905 10.592,-5.53 14.097,-10.371 3.505,-4.84 5.411,-10.6533 5.453,-16.6289 -0.005,-5.7617 -1.762,-11.3856 -5.037,-16.1257 -3.276,-4.74 -7.915,-8.3721 -13.303,-10.4143 l -37.12,32.5 z"
       fill="#0077cc"
       id="path14" />
    <path
       d="m 240.56,120.4 3.44,-0.35 0.24,7 c -7.655,1.156 -15.379,1.791 -23.12,1.9 -8.533,0 -14.58,-2.47 -18.14,-7.41 -3.56,-4.94 -5.337,-12.627 -5.33,-23.06 0,-20.78 8.26,-31.1733 24.78,-31.18 8,0 13.967,2.2334 17.9,6.7 3.934,4.4667 5.907,11.4667 5.92,21 l -0.47,6.76 h -39.12 c 0,6.56 1.187,11.42 3.56,14.58 2.374,3.16 6.5,4.74 12.38,4.74 5.894,0.02 11.88,-0.207 17.96,-0.68 z m -3.2,-25.72 c 0,-7.2733 -1.163,-12.41 -3.49,-15.41 -2.327,-3 -6.12,-4.5033 -11.38,-4.51 -5.26,0 -9.213,1.58 -11.86,4.74 -2.646,3.16 -4.01,8.22 -4.09,15.18 z"
       fill="#1c1e23"
       id="path16" />
    <path
       d="m 258.65,128.48 v -78 h 8.89 v 78 z"
       fill="#1c1e23"
       id="path18" />
    <path
       d="m 323.53,86.38 v 29.9 c 0,3 7.38,2.84 7.38,2.84 l -0.45,7.86 c -6.25,0 -11.42,0.52 -14.52,-2.49 -6.713,2.982 -13.985,4.499 -21.33,4.45 -5.447,0 -9.597,-1.543 -12.45,-4.63 -2.853,-3.087 -4.277,-7.523 -4.27,-13.31 0,-5.773 1.463,-10.023 4.39,-12.75 2.927,-2.7266 7.51,-4.3933 13.75,-5 l 18.61,-1.77 v -5.1 c 0,-4 -0.867,-6.8866 -2.6,-8.66 -0.95,-0.8915 -2.07,-1.5815 -3.294,-2.0283 -1.224,-0.4468 -2.525,-0.6413 -3.826,-0.5717 h -23.36 v -7.83 h 22.77 c 6.72,0 11.6,1.5434 14.64,4.63 3.04,3.0867 4.56,7.9067 4.56,14.46 z M 287,110.56 c 0,7.273 3,10.91 9,10.91 5.413,-0.006 10.786,-0.929 15.89,-2.73 l 2.72,-0.95 V 98.23 l -17.51,1.66 c -3.56,0.32 -6.13,1.347 -7.71,3.08 -1.58,1.733 -2.377,4.263 -2.39,7.59 z"
       fill="#1c1e23"
       id="path20" />
    <path
       d="m 358.24,75.24 c -8.62,0 -12.93,3 -12.93,9 0,2.7734 1,4.73 3,5.87 2,1.14 6.504,2.3267 13.51,3.56 7.04,1.2334 12.02,2.9534 14.94,5.16 2.92,2.207 4.384,6.353 4.39,12.44 0,6.093 -1.956,10.56 -5.87,13.4 -3.913,2.84 -9.623,4.263 -17.13,4.27 -4.9,0 -21.26,-1.82 -21.26,-1.82 l 0.48,-7.7 c 9.4,0.9 16.19,1.57 20.78,1.57 4.59,0 8.08,-0.73 10.49,-2.19 2.41,-1.46 3.61,-3.91 3.61,-7.35 0,-3.44 -1,-5.77 -3.08,-7 -2.08,-1.23 -6.56,-2.39 -13.51,-3.5 -6.95,-1.11 -11.9,-2.73 -14.82,-4.86 -2.92,-2.13 -4.39,-6.09 -4.39,-11.86 0,-5.77 2,-10 6.11,-12.8 4.11,-2.8 9.15,-4.15 15.23,-4.15 4.82,0 21.55,1.23 21.55,1.23 v 7.75 c -8.83,-0.39 -16.05,-1.02 -21.1,-1.02 z"
       fill="#1c1e23"
       id="path22" />
    <path
       d="M 424,76.1801 H 405.15 V 104.52 c 0,6.793 0.493,11.257 1.48,13.39 1,2.14 3.34,3.2 7.05,3.2 l 10.55,-0.71 0.6,7.35 c -3.995,0.739 -8.04,1.176 -12.1,1.31 -6.16,0 -10.427,-1.503 -12.8,-4.51 -2.373,-3.007 -3.557,-8.737 -3.55,-17.19 V 76.1801 H 388 v -7.7 h 8.42 v -18.14 h 8.77 v 18.14 H 424 Z"
       fill="#1c1e23"
       id="path24" />
    <path
       d="m 436.36,60.9101 v -10.32 h 8.89 v 10.32 z m 0,67.5699 V 68.4801 h 8.89 V 128.48 Z"
       fill="#1c1e23"
       id="path26" />
    <path
       d="m 483.76,67.29 c 4.44,0.1895 8.862,0.6672 13.24,1.43 l 2.84,0.35 -0.35,7.23 c -4.646,-0.5886 -9.318,-0.9424 -14,-1.06 -6.72,0 -11.283,1.6 -13.69,4.8 -2.407,3.2 -3.613,9.1267 -3.62,17.78 0,8.667 1.127,14.693 3.38,18.08 2.253,3.387 6.953,5.087 14.1,5.1 l 14,-1.06 0.36,7.35 c -5.45,0.923 -10.955,1.478 -16.48,1.66 -9.24,0 -15.62,-2.373 -19.14,-7.12 -3.52,-4.747 -5.28,-12.747 -5.28,-24 0,-11.26 1.897,-19.1633 5.69,-23.71 3.793,-4.5466 10.11,-6.8233 18.95,-6.83 z"
       fill="#1c1e23"
       id="path28" />
  </g>
  <defs
     id="defs35">
    <clipPath
       id="clip0_15_21">
      <rect
         width="500"
         height="171.38"
         fill="white"
         id="rect32" />
    </clipPath>
  </defs>
</svg>

<svg width="500" height="172" viewBox="0 0 500 172" fill="none" xmlns="http://www.w3.org/2000/svg">
<g clip-path="url(#clip0_15_21)">
<path d="M172.05 89.79C172.066 82.8086 169.924 75.9929 165.915 70.2767C161.907 64.5606 156.229 60.2236 149.66 57.86C150.258 54.813 150.559 51.7152 150.56 48.61C150.566 38.3319 147.312 28.3167 141.267 20.0043C135.222 11.6919 126.697 5.51043 116.917 2.3487C107.138 -0.813038 96.6072 -0.792202 86.8401 2.40821C77.073 5.60863 68.5722 11.8238 62.5601 20.16C58.1246 16.7229 52.6898 14.8248 47.0788 14.7535C41.4678 14.6822 35.9865 16.4414 31.465 19.7646C26.9435 23.0879 23.6283 27.7942 22.0214 33.1707C20.4146 38.5471 20.6037 44.3007 22.5601 49.56C15.9754 51.9601 10.2837 56.3191 6.25042 62.0507C2.21719 67.7824 0.0359539 74.6117 0.000115291 81.62C-0.018156 88.6256 2.13571 95.4646 6.16517 101.195C10.1946 106.926 15.9015 111.267 22.5001 113.62C21.916 116.666 21.618 119.759 21.6101 122.86C21.6003 133.126 24.8511 143.13 30.8937 151.43C36.9364 159.729 45.4586 165.895 55.2317 169.039C65.0048 172.182 75.5237 172.141 85.2717 168.92C95.0197 165.7 103.493 159.467 109.47 151.12C113.893 154.566 119.318 156.475 124.924 156.559C130.53 156.643 136.01 154.896 140.533 151.584C145.057 148.271 148.377 143.574 149.989 138.205C151.602 132.835 151.42 127.087 149.47 121.83C156.058 119.434 161.754 115.076 165.789 109.344C169.825 103.612 172.006 96.7803 172.04 89.77" fill="white"/>
<path d="M67.64 73.81L105.29 91L143.29 57.72C143.837 54.974 144.109 52.1801 144.1 49.38C144.098 40.315 141.195 31.4886 135.815 24.1923C130.436 16.896 122.863 11.5129 114.203 8.83068C105.544 6.14846 96.254 6.30793 87.6921 9.28575C79.1301 12.2636 71.7459 17.9034 66.62 25.38L60.29 58.12L67.64 73.81Z" fill="#FEC514"/>
<path d="M28.6701 113.68C28.115 116.469 27.8369 119.306 27.8401 122.15C27.8403 131.253 30.7583 140.116 36.1659 147.438C41.5735 154.761 49.1858 160.157 57.8857 162.835C66.5856 165.513 75.9149 165.332 84.5043 162.318C93.0937 159.305 100.491 153.617 105.61 146.09L111.88 113.42L103.51 97.4201L65.7201 80.2001L28.6701 113.68Z" fill="#00BFB3"/>
<path d="M28.4401 48.53L54.2401 54.62L59.8901 25.28C56.3809 22.6191 52.1042 21.1665 47.7004 21.1397C43.2965 21.1128 39.0024 22.5133 35.4611 25.1313C31.9198 27.7492 29.3218 31.4439 28.0561 35.662C26.7904 39.8802 26.9251 44.3948 28.4401 48.53Z" fill="#F04E98"/>
<path d="M26.2002 54.67C20.5394 56.5802 15.6146 60.2071 12.1108 65.0461C8.60695 69.8852 6.69825 75.6959 6.65015 81.67C6.64608 87.4439 8.39949 93.0822 11.6773 97.8354C14.955 102.589 19.6019 106.232 25.0002 108.28L61.2002 75.56L54.5502 61.36L26.2002 54.67Z" fill="#1BA9F5"/>
<path d="M112.23 146.09C115.734 148.737 120 150.181 124.391 150.204C128.782 150.227 133.063 148.83 136.594 146.22C140.126 143.61 142.718 139.927 143.985 135.722C145.251 131.518 145.123 127.016 143.62 122.89L117.84 116.89L112.23 146.09Z" fill="#93C90E"/>
<path d="M117.47 110.1L145.85 116.73C151.514 114.825 156.442 111.2 159.947 106.359C163.452 101.519 165.358 95.7057 165.4 89.7301C165.395 83.9684 163.638 78.3445 160.363 73.6044C157.087 68.8644 152.448 65.2323 147.06 63.1901L109.94 95.6901L117.47 110.1Z" fill="#0077CC"/>
<path d="M240.56 120.4L244 120.05L244.24 127.05C236.585 128.206 228.861 128.841 221.12 128.95C212.587 128.95 206.54 126.48 202.98 121.54C199.42 116.6 197.643 108.913 197.65 98.48C197.65 77.7 205.91 67.3067 222.43 67.3C230.43 67.3 236.397 69.5334 240.33 74C244.264 78.4667 246.237 85.4667 246.25 95L245.78 101.76H206.66C206.66 108.32 207.847 113.18 210.22 116.34C212.594 119.5 216.72 121.08 222.6 121.08C228.494 121.1 234.48 120.873 240.56 120.4ZM237.36 94.68C237.36 87.4067 236.197 82.27 233.87 79.27C231.543 76.27 227.75 74.7667 222.49 74.76C217.23 74.76 213.277 76.34 210.63 79.5C207.984 82.66 206.62 87.72 206.54 94.68H237.36Z" fill="#1C1E23"/>
<path d="M258.65 128.48V50.48H267.54V128.48H258.65Z" fill="#1C1E23"/>
<path d="M323.53 86.38V116.28C323.53 119.28 330.91 119.12 330.91 119.12L330.46 126.98C324.21 126.98 319.04 127.5 315.94 124.49C309.227 127.472 301.955 128.989 294.61 128.94C289.163 128.94 285.013 127.397 282.16 124.31C279.307 121.223 277.883 116.787 277.89 111C277.89 105.227 279.353 100.977 282.28 98.25C285.207 95.5234 289.79 93.8567 296.03 93.25L314.64 91.48V86.38C314.64 82.38 313.773 79.4934 312.04 77.72C311.09 76.8285 309.97 76.1385 308.746 75.6917C307.522 75.2449 306.221 75.0504 304.92 75.12H281.56V67.29H304.33C311.05 67.29 315.93 68.8334 318.97 71.92C322.01 75.0067 323.53 79.8267 323.53 86.38ZM287 110.56C287 117.833 290 121.47 296 121.47C301.413 121.464 306.786 120.541 311.89 118.74L314.61 117.79V98.23L297.1 99.89C293.54 100.21 290.97 101.237 289.39 102.97C287.81 104.703 287.013 107.233 287 110.56Z" fill="#1C1E23"/>
<path d="M358.24 75.24C349.62 75.24 345.31 78.24 345.31 84.24C345.31 87.0134 346.31 88.97 348.31 90.11C350.31 91.25 354.814 92.4367 361.82 93.67C368.86 94.9034 373.84 96.6234 376.76 98.83C379.68 101.037 381.144 105.183 381.15 111.27C381.15 117.363 379.194 121.83 375.28 124.67C371.367 127.51 365.657 128.933 358.15 128.94C353.25 128.94 336.89 127.12 336.89 127.12L337.37 119.42C346.77 120.32 353.56 120.99 358.15 120.99C362.74 120.99 366.23 120.26 368.64 118.8C371.05 117.34 372.25 114.89 372.25 111.45C372.25 108.01 371.25 105.68 369.17 104.45C367.09 103.22 362.61 102.06 355.66 100.95C348.71 99.84 343.76 98.22 340.84 96.09C337.92 93.96 336.45 90 336.45 84.23C336.45 78.46 338.45 74.23 342.56 71.43C346.67 68.63 351.71 67.28 357.79 67.28C362.61 67.28 379.34 68.51 379.34 68.51V76.26C370.51 75.87 363.29 75.24 358.24 75.24Z" fill="#1C1E23"/>
<path d="M424 76.1801H405.15V104.52C405.15 111.313 405.643 115.777 406.63 117.91C407.63 120.05 409.97 121.11 413.68 121.11L424.23 120.4L424.83 127.75C420.835 128.489 416.79 128.926 412.73 129.06C406.57 129.06 402.303 127.557 399.93 124.55C397.557 121.543 396.373 115.813 396.38 107.36V76.1801H388V68.4801H396.42V50.3401H405.19V68.4801H424V76.1801Z" fill="#1C1E23"/>
<path d="M436.36 60.9101V50.5901H445.25V60.9101H436.36ZM436.36 128.48V68.4801H445.25V128.48H436.36Z" fill="#1C1E23"/>
<path d="M483.76 67.29C488.2 67.4795 492.622 67.9572 497 68.72L499.84 69.07L499.49 76.3C494.844 75.7114 490.172 75.3576 485.49 75.24C478.77 75.24 474.207 76.84 471.8 80.04C469.393 83.24 468.187 89.1667 468.18 97.82C468.18 106.487 469.307 112.513 471.56 115.9C473.813 119.287 478.513 120.987 485.66 121L499.66 119.94L500.02 127.29C494.57 128.213 489.065 128.768 483.54 128.95C474.3 128.95 467.92 126.577 464.4 121.83C460.88 117.083 459.12 109.083 459.12 97.83C459.12 86.57 461.017 78.6667 464.81 74.12C468.603 69.5734 474.92 67.2967 483.76 67.29Z" fill="#1C1E23"/>
</g>
<defs>
<clipPath id="clip0_15_21">
<rect width="500" height="171.38" fill="white"/>
</clipPath>
</defs>
</svg>
